src/assets/icons/filters/categories/farming.svg

<svg width="48" height="48" viewBox="0 0 48 48" fill="none" xmlns="http://www.w3.org/2000/svg">
<path fill-rule="evenodd" clip-rule="evenodd" d="M30.4834 34.0648C28.1895 34.2226 25.8891 33.8702 23.7475 33.033C21.606 32.1958 19.6765 30.8947 18.0977 29.223L19.0139 28.1639C21.8689 30.0514 25.2687 30.9398 28.6821 30.6905C37.2228 30.0755 43.6703 22.6264 43.0554 14.0857C42.9458 12.5794 42.6146 11.0975 42.0724 9.68799C43.6906 11.9769 44.6528 14.6643 44.8551 17.4601C45.4701 26.0008 39.0241 33.4499 30.4834 34.0648V34.0648ZM5.83324 43.3913C5.69999 43.5457 5.53757 43.6722 5.35529 43.7636C5.17301 43.855 4.97448 43.9095 4.77108 43.9239C4.56746 43.9416 4.36239 43.9173 4.1685 43.8527C3.97461 43.7881 3.79601 43.6844 3.6437 43.5482H3.64215C3.48788 43.4149 3.36153 43.2525 3.27037 43.0702C3.17922 42.8879 3.12508 42.6893 3.11107 42.486C3.09526 42.2828 3.12007 42.0784 3.18405 41.8848C3.24804 41.6913 3.34992 41.5124 3.48376 41.3586L9.5834 34.3133L11.9313 36.3475L5.83324 43.3913V43.3913ZM47.9515 17.2349C47.2869 8.03885 39.8502 0.631693 30.6495 0.00278324C30.2587 -0.0205328 29.8734 0.103293 29.5693 0.349881C29.2652 0.596469 29.0645 0.947954 29.0066 1.33514C28.9518 1.72356 29.0458 2.11836 29.2699 2.44035C29.4939 2.76234 29.8315 2.9877 30.2147 3.07124C35.5566 4.23589 39.563 8.8572 39.9558 14.3093C40.4481 21.1419 35.291 27.1018 28.4584 27.594C25.5386 27.8054 22.6385 26.9734 20.2749 25.2461C20.161 25.0172 19.9925 24.8198 19.7841 24.6717C19.5757 24.5235 19.3339 24.4291 19.0803 24.3969C18.8266 24.3646 18.5689 24.3955 18.3301 24.4867C18.0912 24.578 17.8786 24.7268 17.7111 24.92L11.6145 31.9654L10.4406 30.9498C10.1292 30.6806 9.7236 30.546 9.31302 30.5758C8.90245 30.6055 8.52048 30.797 8.25104 31.1082L1.13738 39.3275C0.73521 39.7886 0.428714 40.3251 0.235707 40.9057C0.0427003 41.4863 -0.0329659 42.0995 0.0131077 42.7096C0.0555596 43.32 0.218643 43.9159 0.49292 44.4629C0.767197 45.0098 1.14722 45.497 1.611 45.8961C2.07219 46.2987 2.60885 46.6056 3.18976 46.7989C3.77066 46.9922 4.38421 47.068 4.99469 47.0219C5.60545 46.9794 6.20171 46.8161 6.74894 46.5416C7.29617 46.267 7.7835 45.8866 8.18272 45.4225L15.2948 37.2032C15.5642 36.8919 15.699 36.4865 15.6696 36.0759C15.6402 35.6654 15.449 35.2833 15.138 35.0136L13.964 33.9981L16.048 31.5911C17.9393 33.5293 20.2306 35.0317 22.762 35.9937C25.2935 36.9557 28.0042 37.3541 30.7054 37.1612C40.9528 36.4236 48.6876 27.4869 47.9515 17.2349V17.2349Z" fill="#253238"/>
<path fill-rule="evenodd" clip-rule="evenodd" d="M5.83315 43.3913C5.70009 43.5454 5.53791 43.6718 5.35591 43.7632C5.17392 43.8546 4.97568 43.9092 4.77255 43.9239C4.56893 43.9415 4.36386 43.9173 4.16997 43.8527C3.97608 43.788 3.79748 43.6844 3.64517 43.5481H3.64362C3.48935 43.4149 3.36299 43.2524 3.27184 43.0701C3.18069 42.8878 3.12655 42.6893 3.11254 42.4859C3.09672 42.2827 3.12153 42.0783 3.18552 41.8848C3.24951 41.6912 3.35139 41.5123 3.48522 41.3586L9.58487 34.3132L11.9328 36.3475L5.8347 43.3913H5.83315ZM30.4833 34.0648C28.1894 34.2225 25.889 33.8701 23.7475 33.0329C21.6059 32.1958 19.6764 30.8946 18.0977 29.2229L19.0139 28.1639C21.8688 30.0513 25.2686 30.9398 28.682 30.6904C37.2227 30.0755 43.6702 22.6264 43.0553 14.0856C42.9458 12.5794 42.6145 11.0975 42.0723 9.68793C43.6905 11.9768 44.6527 14.6642 44.855 17.46C45.47 26.0008 39.024 33.4498 30.4833 34.0648V34.0648Z" fill="#CFD8DC"/>
<path opacity="0.5" fill-rule="evenodd" clip-rule="evenodd" d="M30.4835 34.0648C28.1896 34.2225 25.8892 33.8701 23.7477 33.0329C21.6062 32.1958 19.6767 30.8946 18.0979 29.2229L19.0141 28.1639C21.869 30.0513 25.2689 30.9398 28.6822 30.6904C37.223 30.0755 43.6704 22.6264 43.0555 14.0856C42.946 12.5794 42.6148 11.0975 42.0725 9.68793C43.6907 11.9768 44.6529 14.6642 44.8553 17.46C45.4702 26.0008 39.0243 33.4498 30.4835 34.0648V34.0648Z" fill="white"/>
</svg>

<svg width="48" height="48" viewBox="0 0 48 48" fill="none" xmlns="http://www.w3.org/2000/svg"><path fill-rule="evenodd" clip-rule="evenodd" d="M30.483 34.065a15.566 15.566 0 01-12.385-4.842l.916-1.06a15.485 15.485 0 009.668 2.527c8.54-.614 14.988-8.064 14.373-16.604a15.352 15.352 0 00-.983-4.398 15.387 15.387 0 012.783 7.772c.615 8.54-5.83 15.99-14.372 16.605zM5.833 43.39a1.548 1.548 0 01-1.062.533 1.496 1.496 0 01-1.127-.376h-.002a1.545 1.545 0 01-.53-1.062 1.536 1.536 0 01.372-1.127l6.1-7.046 2.347 2.034-6.098 7.044zm42.119-26.156C47.287 8.039 39.85.632 30.65.003a1.567 1.567 0 00-1.643 1.332 1.555 1.555 0 001.208 1.736c5.342 1.165 9.348 5.786 9.74 11.238.493 6.833-4.664 12.793-11.497 13.285-2.92.211-5.82-.62-8.183-2.348a1.554 1.554 0 00-2.564-.326l-6.096 7.045-1.174-1.015a1.552 1.552 0 00-2.19.158l-7.114 8.22A4.617 4.617 0 00.013 42.71a4.628 4.628 0 001.598 3.186 4.618 4.618 0 003.384 1.126 4.63 4.63 0 003.188-1.6l7.112-8.219a1.553 1.553 0 00-.157-2.19l-1.174-1.015 2.084-2.407a18.626 18.626 0 0014.657 5.57c10.248-.737 17.983-9.674 17.247-19.926z" fill="#253238"/><path fill-rule="evenodd" clip-rule="evenodd" d="M5.833 43.391a1.549 1.549 0 01-1.06.533 1.498 1.498 0 01-1.128-.376h-.001a1.544 1.544 0 01-.531-1.062 1.535 1.535 0 01.372-1.127l6.1-7.046 2.348 2.034-6.098 7.044h-.002zm24.65-9.326a15.567 15.567 0 01-12.385-4.842l.916-1.06a15.485 15.485 0 009.668 2.527c8.54-.614 14.988-8.064 14.373-16.604a15.35 15.35 0 00-.983-4.398 15.387 15.387 0 012.783 7.772c.615 8.54-5.831 15.99-14.372 16.605z" fill="#CFD8DC"/><path opacity=".5" fill-rule="evenodd" clip-rule="evenodd" d="M30.483 34.065a15.567 15.567 0 01-12.385-4.842l.916-1.06a15.485 15.485 0 009.668 2.527c8.541-.614 14.988-8.064 14.374-16.604a15.346 15.346 0 00-.983-4.398 15.388 15.388 0 012.782 7.772c.615 8.54-5.83 15.99-14.371 16.605z" fill="#fff"/></svg>
